X:132
T:A Favourite Hornpipe. TLY.081
T:Navvie On The Line. TLY.081
M:C
L:1/8
S:Wm.Tildesley,Swinton,Lancs.1860s.
R:Hornpipe
O:England.
A:Lancashire.
H:1860.
Z:vmp.Taz Tarry.
K:A
cd| eagf edcB| AcEA c2 BA| GBEB d2cB| AcEA c2cd|!
 eagf edcB| AcEA c3 B| Afed cBAG| B2A2A2:|!
|:cB|AcEA c2BA| GBEB d2cB| AcEA c2BA| GBEB d2cB|!
 eagf edcB| AcEA c3B| Afed cBAG| B2A2A2:|]
